src-tauri/icons/icon.svg

<?xml version="1.0" encoding="UTF-8" standalone="no"?>
<svg
   viewBox="0 0 512 512"
   width="512"
   height="512"
   version="1.1"
   id="svg21"
   sodipodi:docname="icon.svg"
   inkscape:version="1.4 (86a8ad7, 2024-10-11)"
   xmlns:inkscape="http://www.inkscape.org/namespaces/inkscape"
   xmlns:sodipodi="http://sodipodi.sourceforge.net/DTD/sodipodi-0.dtd"
   xmlns="http://www.w3.org/2000/svg"
   xmlns:svg="http://www.w3.org/2000/svg">
  <sodipodi:namedview
     id="namedview21"
     pagecolor="#ffffff"
     bordercolor="#000000"
     borderopacity="0.25"
     inkscape:showpageshadow="2"
     inkscape:pageopacity="0.0"
     inkscape:pagecheckerboard="0"
     inkscape:deskcolor="#d1d1d1"
     inkscape:zoom="0.55726091"
     inkscape:cx="561.67586"
     inkscape:cy="478.232"
     inkscape:window-width="1904"
     inkscape:window-height="961"
     inkscape:window-x="917"
     inkscape:window-y="1188"
     inkscape:window-maximized="0"
     inkscape:current-layer="svg21" />
  <defs
     id="defs8">
    <!-- Background gradient - warm orange -->
    <linearGradient
       id="bg"
       x1="0"
       y1="0"
       x2="512"
       y2="512"
       gradientUnits="userSpaceOnUse"
       gradientTransform="scale(2)">
      <stop
         offset="0%"
         stop-color="#F7A828"
         id="stop1" />
      <stop
         offset="100%"
         stop-color="#C96B08"
         id="stop2" />
    </linearGradient>
    <!-- Glow behind the rocket -->
    <radialGradient
       id="glow"
       cx="248"
       cy="240"
       r="160"
       fx="248"
       fy="240"
       gradientUnits="userSpaceOnUse"
       gradientTransform="scale(2)">
      <stop
         offset="0%"
         stop-color="white"
         stop-opacity="0.12"
         id="stop3" />
      <stop
         offset="100%"
         stop-color="white"
         stop-opacity="0"
         id="stop4" />
    </radialGradient>
    <!-- Flame gradient -->
    <linearGradient
       id="flame-outer"
       x1="-27.253302"
       y1="55.320135"
       x2="-27.253302"
       y2="109.82674"
       gradientTransform="scale(0.8135314,1.2292089)"
       gradientUnits="userSpaceOnUse">
      <stop
         offset="0%"
         stop-color="#FDE68A"
         id="stop5" />
      <stop
         offset="100%"
         stop-color="#F59E0B"
         stop-opacity="0.1"
         id="stop6" />
    </linearGradient>
    <linearGradient
       id="flame-inner"
       x1="-17.508238"
       y1="47.622409"
       x2="-17.508238"
       y2="82.638886"
       gradientTransform="scale(0.70032954,1.4278992)"
       gradientUnits="userSpaceOnUse">
      <stop
         offset="0%"
         stop-color="#FFFBEB"
         id="stop7" />
      <stop
         offset="100%"
         stop-color="#FDE68A"
         stop-opacity="0.2"
         id="stop8" />
    </linearGradient>
  </defs>
  <!-- Background rounded square -->
  <rect
     width="1024"
     height="1024"
     rx="216"
     fill="url(#bg)"
     id="rect8"
     style="fill:url(#bg);stroke-width:2"
     x="0"
     y="0" />
  <!-- Subtle inner border -->
  <rect
     x="8"
     y="8"
     width="1008"
     height="1008"
     rx="212"
     fill="none"
     stroke="#ffffff"
     stroke-opacity="0.1"
     stroke-width="2"
     id="rect9" />
  <!-- Glow -->
  <circle
     cx="496"
     cy="480"
     r="400"
     fill="url(#glow)"
     id="circle9"
     style="fill:url(#glow);stroke-width:2" />
  <!-- Rocket group — tilted 45° pointing upper-right -->
  <g
     transform="matrix(1.4142136,-1.4142136,1.4142136,1.4142136,520,536)"
     id="g16">
    <!-- Rocket body -->
    <path
       d="m 0,-145 c 28,25 38,85 38,155 V 56 H -38 V 10 c 0,-70 10,-130 38,-155 z"
       fill="#ffffff"
       id="path9" />
    <!-- Window -->
    <circle
       cx="0"
       cy="-38"
       r="18"
       fill="#d97706"
       id="circle10" />
    <circle
       cx="0"
       cy="-38"
       r="12"
       fill="#c2710a"
       opacity="0.5"
       id="circle11" />
    <!-- Window highlight -->
    <circle
       cx="-5"
       cy="-43"
       r="4"
       fill="#ffffff"
       opacity="0.35"
       id="circle12" />
    <!-- Body detail line -->
    <line
       x1="-26"
       y1="20"
       x2="26"
       y2="20"
       stroke="#e8e8e8"
       stroke-width="2.5"
       opacity="0.5"
       id="line12" />
    <!-- Left fin -->
    <path
       d="m -38,18 -27,44 c -2,4 1,6 5,4 l 22,-14 z"
       fill="rgba(255,255,255,0.92)"
       id="path12" />
    <!-- Right fin -->
    <path
       d="m 38,18 27,44 c 2,4 -1,6 -5,4 L 38,52 Z"
       fill="rgba(255,255,255,0.92)"
       id="path13" />
    <!-- Nozzle -->
    <path
       d="m -24,56 -4,12 H 28 L 24,56 Z"
       fill="rgba(255,255,255,0.8)"
       id="path14" />
    <!-- Outer flame -->
    <path
       d="m -22,68 c -2,32 14,57 22,67 8,-10 24,-35 22,-67"
       fill="url(#flame-outer)"
       opacity="0.85"
       id="path15"
       style="fill:url(#flame-outer)" />
    <!-- Inner flame -->
    <path
       d="m -12,68 c -2,24 8,42 12,50 4,-8 14,-26 12,-50"
       fill="url(#flame-inner)"
       opacity="0.9"
       id="path16"
       style="fill:url(#flame-inner)" />
  </g>
  <!-- Stars / sparkles -->
  <!-- Large sparkle -->
  <g
     transform="matrix(2,0,0,2,790,216)"
     fill="#ffffff"
     opacity="0.7"
     id="g17">
    <path
       d="M 0,-14 C 2,-4 4,-2 14,0 4,2 2,4 0,14 -2,4 -4,2 -14,0 -4,-2 -2,-4 0,-14 Z"
       id="path17" />
  </g>
  <!-- Medium sparkle -->
  <g
     transform="matrix(2,0,0,2,740,350)"
     fill="#ffffff"
     opacity="0.45"
     id="g18">
    <path
       d="M 0,-9 C 1.5,-3 3,-1.5 9,0 3,1.5 1.5,3 0,9 -1.5,3 -3,1.5 -9,0 c 6,-1.5 7.5,-3 9,-9 z"
       id="path18" />
  </g>
  <!-- Small sparkle -->
  <g
     transform="matrix(2,0,0,2,840,310)"
     fill="#ffffff"
     opacity="0.35"
     id="g19">
    <path
       d="M 0,-6 C 1,-2 2,-1 6,0 2,1 1,2 0,6 -1,2 -2,1 -6,0 c 4,-1 5,-2 6,-6 z"
       id="path19" />
  </g>
  <!-- Subtle speed trail lines (lower-left, behind the rocket) -->
  <g
     opacity="0.3"
     stroke="#ffffff"
     stroke-linecap="round"
     id="g21"
     transform="scale(2)">
    <line
       x1="78"
       y1="370"
       x2="138"
       y2="330"
       stroke-width="5"
       id="line19" />
    <line
       x1="95"
       y1="408"
       x2="148"
       y2="375"
       stroke-width="4"
       id="line20" />
    <line
       x1="58"
       y1="342"
       x2="108"
       y2="310"
       stroke-width="3.5"
       id="line21" />
  </g>
</svg>

<svg xmlns="http://www.w3.org/2000/svg" viewBox="0 0 512 512" width="512" height="512">
  <defs>
    <!-- Background gradient - warm orange -->
    <linearGradient id="bg" x1="0" y1="0" x2="512" y2="512" gradientUnits="userSpaceOnUse">
      <stop offset="0%" stop-color="#F7A828"/>
      <stop offset="100%" stop-color="#C96B08"/>
    </linearGradient>
    <!-- Glow behind the rocket -->
    <radialGradient id="glow" cx="50%" cy="50%" r="40%">
      <stop offset="0%" stop-color="white" stop-opacity="0.12"/>
      <stop offset="100%" stop-color="white" stop-opacity="0"/>
    </radialGradient>
    <!-- Flame gradient -->
    <linearGradient id="flame-outer" x1="0" y1="0" x2="0" y2="1">
      <stop offset="0%" stop-color="#FDE68A"/>
      <stop offset="100%" stop-color="#F59E0B" stop-opacity="0.1"/>
    </linearGradient>
    <linearGradient id="flame-inner" x1="0" y1="0" x2="0" y2="1">
      <stop offset="0%" stop-color="#FFFBEB"/>
      <stop offset="100%" stop-color="#FDE68A" stop-opacity="0.2"/>
    </linearGradient>
  </defs>

  <!-- Background rounded square -->
  <rect width="512" height="512" rx="108" fill="url(#bg)"/>

  <!-- Subtle inner border -->
  <rect x="4" y="4" width="504" height="504" rx="106" fill="none" stroke="white" stroke-opacity="0.1" stroke-width="2"/>

  <!-- Glow -->
  <circle cx="248" cy="240" r="200" fill="url(#glow)"/>

  <!-- Rocket group — tilted 45° pointing upper-right -->
  <g transform="translate(260, 268) rotate(-45)">
    <!-- Rocket body -->
    <path d="
      M 0,-145
      C 28,-120  38,-60  38,10
      L 38,56
      L -38,56
      L -38,10
      C -38,-60 -28,-120 0,-145
      Z
    " fill="white"/>

    <!-- Window -->
    <circle cx="0" cy="-38" r="18" fill="#D97706"/>
    <circle cx="0" cy="-38" r="12" fill="#C2710A" opacity="0.5"/>
    <!-- Window highlight -->
    <circle cx="-5" cy="-43" r="4" fill="white" opacity="0.35"/>

    <!-- Body detail line -->
    <line x1="-26" y1="20" x2="26" y2="20" stroke="#E8E8E8" stroke-width="2.5" opacity="0.5"/>

    <!-- Left fin -->
    <path d="M -38,18 L -65,62 C -67,66 -64,68 -60,66 L -38,52 Z" fill="rgba(255,255,255,0.92)"/>

    <!-- Right fin -->
    <path d="M 38,18 L 65,62 C 67,66 64,68 60,66 L 38,52 Z" fill="rgba(255,255,255,0.92)"/>

    <!-- Nozzle -->
    <path d="M -24,56 L -28,68 L 28,68 L 24,56 Z" fill="rgba(255,255,255,0.8)"/>

    <!-- Outer flame -->
    <path d="M -22,68 C -24,100 -8,125 0,135 C 8,125 24,100 22,68" fill="url(#flame-outer)" opacity="0.85"/>

    <!-- Inner flame -->
    <path d="M -12,68 C -14,92 -4,110 0,118 C 4,110 14,92 12,68" fill="url(#flame-inner)" opacity="0.9"/>
  </g>

  <!-- Stars / sparkles -->
  <!-- Large sparkle -->
  <g transform="translate(395, 108)" fill="white" opacity="0.7">
    <path d="M 0,-14 C 2,-4 4,-2 14,0 C 4,2 2,4 0,14 C -2,4 -4,2 -14,0 C -4,-2 -2,-4 0,-14 Z"/>
  </g>
  <!-- Medium sparkle -->
  <g transform="translate(370, 175)" fill="white" opacity="0.45">
    <path d="M 0,-9 C 1.5,-3 3,-1.5 9,0 C 3,1.5 1.5,3 0,9 C -1.5,3 -3,1.5 -9,0 C -3,-1.5 -1.5,-3 0,-9 Z"/>
  </g>
  <!-- Small sparkle -->
  <g transform="translate(420, 155)" fill="white" opacity="0.35">
    <path d="M 0,-6 C 1,-2 2,-1 6,0 C 2,1 1,2 0,6 C -1,2 -2,1 -6,0 C -2,-1 -1,-2 0,-6 Z"/>
  </g>

  <!-- Subtle speed trail lines (lower-left, behind the rocket) -->
  <g opacity="0.3" stroke="white" stroke-linecap="round">
    <line x1="78" y1="370" x2="138" y2="330" stroke-width="5"/>
    <line x1="95" y1="408" x2="148" y2="375" stroke-width="4"/>
    <line x1="58" y1="342" x2="108" y2="310" stroke-width="3.5"/>
  </g>
</svg>
